usr/share/icons/biglinux-icons-material/scalable/places/folder-gdrive.svg

<?xml version="1.0" encoding="UTF-8" standalone="no"?>
<svg
   width="24"
   height="24"
   viewBox="0 0 24 24"
   fill="none"
   version="1.1"
   id="svg20"
   sodipodi:docname="folder-gdrive.svg"
   inkscape:version="1.3 (0e150ed6c4, 2023-07-21)"
   xmlns:inkscape="http://www.inkscape.org/namespaces/inkscape"
   xmlns:sodipodi="http://sodipodi.sourceforge.net/DTD/sodipodi-0.dtd"
   xmlns="http://www.w3.org/2000/svg"
   xmlns:svg="http://www.w3.org/2000/svg">
  <sodipodi:namedview
     id="namedview20"
     pagecolor="#ffffff"
     bordercolor="#000000"
     borderopacity="0.25"
     inkscape:showpageshadow="2"
     inkscape:pageopacity="0.0"
     inkscape:pagecheckerboard="0"
     inkscape:deskcolor="#d1d1d1"
     inkscape:zoom="33.791667"
     inkscape:cx="12"
     inkscape:cy="12"
     inkscape:window-width="2560"
     inkscape:window-height="998"
     inkscape:window-x="0"
     inkscape:window-y="0"
     inkscape:window-maximized="1"
     inkscape:current-layer="svg20" />
  <rect
     opacity="0.8125"
     x="1"
     y="1"
     width="22"
     height="22"
     rx="6.6"
     fill="url(#paint0_linear_211_155)"
     id="rect1" />
  <rect
     opacity="0.125"
     x="3"
     y="2.25"
     width="18"
     height="18"
     rx="4.4"
     fill="url(#paint1_linear_211_155)"
     fill-opacity="0.875"
     id="rect2" />
  <rect
     x="3.25"
     y="3.25"
     width="17.5"
     height="17.5"
     rx="4.15"
     fill="#CCCCCC"
     stroke="url(#paint2_linear_211_155)"
     stroke-width="0.5"
     id="rect3" />
  <path
     opacity="0.125"
     d="M1 7.50781C1 5.84664 2.34664 4.5 4.00781 4.5H8.19048C9.265 4.5 10.3068 4.86994 11.1406 5.54762V5.54762C11.9745 6.2253 13.0162 6.59524 14.0908 6.59524H19.9922C21.6534 6.59524 23 7.94188 23 9.60305V15.5C23 19.1451 20.0451 22.1 16.4 22.1H7.6C3.95492 22.1 1 19.1451 1 15.5V7.50781Z"
     fill="url(#paint3_linear_211_155)"
     fill-opacity="0.875"
     id="path3" />
  <g
     opacity="0.875"
     id="g5">
    <path
       d="M1 8.40782C1 6.74665 2.34664 5.4 4.00781 5.4H8.19048C9.265 5.4 10.3068 5.76994 11.1406 6.44762V6.44762C11.9745 7.1253 13.0162 7.49524 14.0908 7.49524H19.9922C21.6534 7.49524 23 8.84188 23 10.5031V16.4C23 20.0451 20.0451 23 16.4 23H7.6C3.95492 23 1 20.0451 1 16.4V8.40782Z"
       fill="url(#paint4_linear_211_155)"
       id="path4" />
    <path
       d="M22.625 10.5031V16.4C22.625 19.838 19.838 22.625 16.4 22.625H7.6C4.16203 22.625 1.375 19.838 1.375 16.4V8.40782C1.375 6.95375 2.55375 5.775 4.00781 5.775H8.19048C9.17886 5.775 10.1371 6.11528 10.9041 6.73864C11.8048 7.47065 12.9301 7.87024 14.0908 7.87024H19.9922C21.4462 7.87024 22.625 9.04899 22.625 10.5031Z"
       stroke="url(#paint5_linear_211_155)"
       stroke-opacity="0.375"
       stroke-width="0.75"
       stroke-linejoin="round"
       id="path5" />
  </g>
  <g
     id="g22"
     transform="matrix(0.92319277,0,0,0.92319277,0.52243876,1.2912651)"
     style="opacity:0.15;fill:#1a1a1a">
    <path
       fill-rule="evenodd"
       clip-rule="evenodd"
       d="M 10.2378,10.3463 C 10.0736,10.0302 9.62732,10.014 9.44067,10.3174 L 6.10956,15.7322 C 6.02678,15.8668 6.01913,16.0345 6.08932,16.176 l 1.32392,2.6696 c 0.16327,0.3292 0.62819,0.342 0.80937,0.0223 l 3.23819,-5.7145 c 0.0765,-0.135 0.0795,-0.2995 0.008,-0.4372 z"
       fill="#01ac3c"
       id="path20"
       style="fill:#1a1a1a" />
    <path
       fill-rule="evenodd"
       clip-rule="evenodd"
       d="m 10.6275,16.851 c -0.1577,0 -0.3044,0.0812 -0.3882,0.2148 L 8.83882,19.2981 C 8.64733,19.6033 8.86674,20 9.22708,20 h 6.82152 c 0.1577,0 0.3043,-0.0811 0.3882,-0.2146 l 1.4014,-2.2323 C 18.0298,17.2478 17.8104,16.851 17.45,16.851 Z"
       fill="#0083ff"
       id="path21"
       style="fill:#1a1a1a" />
    <path
       fill-rule="evenodd"
       clip-rule="evenodd"
       d="m 11.2375,9 c -0.3488,0 -0.5698,0.37418 -0.4014,0.67965 l 3.4002,6.16625 c 0.0807,0.1463 0.2344,0.2371 0.4014,0.2371 h 2.8601 c 0.3489,0 0.5698,-0.3743 0.4013,-0.6797 L 14.4977,9.23696 C 14.4171,9.09077 14.2634,9 14.0964,9 Z"
       fill="#ffb902"
       id="path22"
       style="fill:#1a1a1a" />
  </g>
  <g
     id="g20"
     transform="matrix(0.92319277,0,0,0.92319277,0.92243876,0.69126507)">
    <path
       fill-rule="evenodd"
       clip-rule="evenodd"
       d="M 10.2378,10.3463 C 10.0736,10.0302 9.62732,10.014 9.44067,10.3174 L 6.10956,15.7322 C 6.02678,15.8668 6.01913,16.0345 6.08932,16.176 l 1.32392,2.6696 c 0.16327,0.3292 0.62819,0.342 0.80937,0.0223 l 3.23819,-5.7145 c 0.0765,-0.135 0.0795,-0.2995 0.008,-0.4372 z"
       fill="#01ac3c"
       id="path6" />
    <path
       fill-rule="evenodd"
       clip-rule="evenodd"
       d="m 10.6275,16.851 c -0.1577,0 -0.3044,0.0812 -0.3882,0.2148 L 8.83882,19.2981 C 8.64733,19.6033 8.86674,20 9.22708,20 h 6.82152 c 0.1577,0 0.3043,-0.0811 0.3882,-0.2146 l 1.4014,-2.2323 C 18.0298,17.2478 17.8104,16.851 17.45,16.851 Z"
       fill="#0083ff"
       id="path7" />
    <path
       fill-rule="evenodd"
       clip-rule="evenodd"
       d="m 11.2375,9 c -0.3488,0 -0.5698,0.37418 -0.4014,0.67965 l 3.4002,6.16625 c 0.0807,0.1463 0.2344,0.2371 0.4014,0.2371 h 2.8601 c 0.3489,0 0.5698,-0.3743 0.4013,-0.6797 L 14.4977,9.23696 C 14.4171,9.09077 14.2634,9 14.0964,9 Z"
       fill="#ffb902"
       id="path8" />
  </g>
  <defs
     id="defs20">
    <linearGradient
       id="paint0_linear_211_155"
       x1="23"
       y1="0.999999"
       x2="1"
       y2="12"
       gradientUnits="userSpaceOnUse">
      <stop
         stop-color="#E3C880"
         id="stop8" />
      <stop
         offset="1"
         stop-color="#6F5C38"
         id="stop9" />
    </linearGradient>
    <linearGradient
       id="paint1_linear_211_155"
       x1="21"
       y1="4"
       x2="3"
       y2="4"
       gradientUnits="userSpaceOnUse">
      <stop
         stop-opacity="0.5"
         id="stop10" />
      <stop
         offset="0.890123"
         id="stop11" />
      <stop
         offset="1"
         stop-opacity="0"
         id="stop12" />
    </linearGradient>
    <linearGradient
       id="paint2_linear_211_155"
       x1="12"
       y1="3"
       x2="11.5"
       y2="8"
       gradientUnits="userSpaceOnUse">
      <stop
         stop-color="#DDDDDD"
         id="stop13" />
      <stop
         offset="1"
         stop-color="#CCCCCC"
         stop-opacity="0"
         id="stop14" />
    </linearGradient>
    <linearGradient
       id="paint3_linear_211_155"
       x1="23"
       y1="9"
       x2="1.01236"
       y2="9.52141"
       gradientUnits="userSpaceOnUse">
      <stop
         stop-opacity="0.5"
         id="stop15" />
      <stop
         offset="1"
         id="stop16" />
    </linearGradient>
    <linearGradient
       id="paint4_linear_211_155"
       x1="23"
       y1="5.4"
       x2="1.42949"
       y2="23.5115"
       gradientUnits="userSpaceOnUse">
      <stop
         stop-color="#FFE795"
         id="stop17" />
      <stop
         offset="1"
         stop-color="#7A653E"
         id="stop18" />
    </linearGradient>
    <linearGradient
       id="paint5_linear_211_155"
       x1="15"
       y1="5.5"
       x2="5.5"
       y2="19.5"
       gradientUnits="userSpaceOnUse">
      <stop
         stop-color="#FFE795"
         id="stop19" />
      <stop
         offset="1"
         stop-color="#7A653E"
         id="stop20" />
    </linearGradient>
  </defs>
</svg>

<svg xmlns="http://www.w3.org/2000/svg" width="24" height="24" fill="none"><rect width="22" height="22" x="1" y="1" fill="url(#a)" opacity=".813" rx="6.6"/><rect width="18" height="18" x="3" y="2.25" fill="url(#b)" fill-opacity=".875" opacity=".125" rx="4.4"/><rect width="17.5" height="17.5" x="3.25" y="3.25" fill="#CCC" stroke="url(#c)" stroke-width=".5" rx="4.15"/><path fill="url(#d)" fill-opacity=".875" d="M1 7.508A3.008 3.008 0 0 1 4.008 4.5H8.19c1.075 0 2.117.37 2.95 1.048a4.678 4.678 0 0 0 2.95 1.047h5.902A3.008 3.008 0 0 1 23 9.603V15.5a6.6 6.6 0 0 1-6.6 6.6H7.6A6.6 6.6 0 0 1 1 15.5V7.508Z" opacity=".125"/><g opacity=".875"><path fill="url(#e)" d="M1 8.408A3.008 3.008 0 0 1 4.008 5.4H8.19c1.075 0 2.117.37 2.95 1.048a4.678 4.678 0 0 0 2.95 1.047h5.902A3.008 3.008 0 0 1 23 10.503V16.4a6.6 6.6 0 0 1-6.6 6.6H7.6A6.6 6.6 0 0 1 1 16.4V8.408Z"/><path stroke="url(#f)" stroke-linejoin="round" stroke-opacity=".375" stroke-width=".75" d="M22.625 10.503V16.4a6.225 6.225 0 0 1-6.225 6.225H7.6A6.225 6.225 0 0 1 1.375 16.4V8.408a2.633 2.633 0 0 1 2.633-2.633H8.19c.989 0 1.947.34 2.714.964a5.053 5.053 0 0 0 3.187 1.131h5.901a2.633 2.633 0 0 1 2.633 2.633Z"/></g><g fill-rule="evenodd" clip-rule="evenodd" style="opacity:.15;fill:#1a1a1a"><path fill="#01ac3c" d="M10.238 10.346a.458.458 0 0 0-.797-.029L6.11 15.732a.458.458 0 0 0-.02.444l1.323 2.67c.164.329.628.342.81.022l3.238-5.715c.076-.135.08-.3.008-.437z" style="fill:#1a1a1a" transform="matrix(.9232 0 0 .9232 .522 1.291)"/><path fill="#0083ff" d="M10.627 16.851a.458.458 0 0 0-.388.215l-1.4 2.232a.458.458 0 0 0 .388.702h6.822a.459.459 0 0 0 .388-.215l1.401-2.232a.458.458 0 0 0-.388-.702Z" style="fill:#1a1a1a" transform="matrix(.9232 0 0 .9232 .522 1.291)"/><path fill="#ffb902" d="M11.238 9a.458.458 0 0 0-.402.68l3.4 6.166c.081.146.235.237.402.237h2.86c.349 0 .57-.374.401-.68l-3.401-6.166A.458.458 0 0 0 14.096 9Z" style="fill:#1a1a1a" transform="matrix(.9232 0 0 .9232 .522 1.291)"/></g><g fill-rule="evenodd" clip-rule="evenodd"><path fill="#01ac3c" d="M10.374 10.243a.423.423 0 0 0-.736-.027l-3.075 5a.423.423 0 0 0-.019.409l1.222 2.464c.151.304.58.316.747.021l2.99-5.276a.423.423 0 0 0 .007-.403z"/><path fill="#0083ff" d="M10.734 16.248a.423.423 0 0 0-.359.198l-1.293 2.061a.423.423 0 0 0 .359.648h6.297c.146 0 .281-.075.359-.198l1.294-2.06a.423.423 0 0 0-.359-.649Z"/><path fill="#ffb902" d="M11.297 9a.423.423 0 0 0-.37.627l3.138 5.693a.423.423 0 0 0 .37.219h2.641a.423.423 0 0 0 .37-.628l-3.14-5.692a.423.423 0 0 0-.37-.219Z"/></g><defs><linearGradient id="a" x1="23" x2="1" y1="1" y2="12" gradientUnits="userSpaceOnUse"><stop stop-color="#E3C880"/><stop offset="1" stop-color="#6F5C38"/></linearGradient><linearGradient id="b" x1="21" x2="3" y1="4" y2="4" gradientUnits="userSpaceOnUse"><stop stop-opacity=".5"/><stop offset=".89"/><stop offset="1" stop-opacity="0"/></linearGradient><linearGradient id="c" x1="12" x2="11.5" y1="3" y2="8" gradientUnits="userSpaceOnUse"><stop stop-color="#DDD"/><stop offset="1" stop-color="#CCC" stop-opacity="0"/></linearGradient><linearGradient id="d" x1="23" x2="1.012" y1="9" y2="9.521" gradientUnits="userSpaceOnUse"><stop stop-opacity=".5"/><stop offset="1"/></linearGradient><linearGradient id="e" x1="23" x2="1.429" y1="5.4" y2="23.512" gradientUnits="userSpaceOnUse"><stop stop-color="#FFE795"/><stop offset="1" stop-color="#7A653E"/></linearGradient><linearGradient id="f" x1="15" x2="5.5" y1="5.5" y2="19.5" gradientUnits="userSpaceOnUse"><stop stop-color="#FFE795"/><stop offset="1" stop-color="#7A653E"/></linearGradient></defs></svg>
